img/git-to-great.svg

<?xml version="1.0" encoding="UTF-8" standalone="no"?>
<svg width="751px" height="300px" viewBox="0 0 751 300" version="1.1" xmlns="http://www.w3.org/2000/svg" xmlns:xlink="http://www.w3.org/1999/xlink">
    <!-- Generator: Sketch 42 (36781) - http://www.bohemiancoding.com/sketch -->
    <title>git-to-great</title>
    <desc>Created with Sketch.</desc>
    <defs></defs>
    <g id="Page-1" stroke="none" stroke-width="1" fill="none" fill-rule="evenodd">
        <g id="git-to-great" fill-rule="nonzero" fill="#FFFFFF">
            <path d="M422,186 L422,172 L389,172 C384.710526,170.686016 380.263158,170 373,170 C346.736842,170 333.736842,183.548813 334,203 C333.736842,215.963061 340.065789,224.881266 348,229 C344.342105,232.770449 340.921053,236.029024 338,239 C334.763158,242.546174 332.881579,245.976253 333,250 C332.881579,254.379947 334.763158,258.667546 340,261 C334.421053,266.728232 331,270.844327 331,279 C331,292.110818 342.802632,300 374,300 C403.526316,300 420.802632,288.852243 421,269 C420.802632,246.319261 403.355263,245.461741 374,244 L357,243 L363,233 C365.723684,234.313984 370.684211,235 376,235 C397.710526,235 412.592105,223.852243 413,205 C412.592105,196.926121 409.342105,191.437995 406,187 L422,186 Z M390,202 C390,211.342857 383.497326,217 374,217 C362.620321,217 358,211.171429 358,203 C358,191.628571 365.016043,187 374,187 C384.181818,187 390,192.314286 390,202 L390,202 Z M380,268 C388.51938,268.228571 395,268.571429 395,274 C395,283.314286 381.527132,284 372,284 C359.697674,284 351,281.942857 351,275 C351,271.657143 353.217054,268.742857 355,266 L380,268 Z M484,261 L484,247 L467,246 C464.427252,245.747646 464.256351,245.233522 464,242 L464,197 C466.819861,194.849341 472.117783,191.079096 477,191 C477.928406,191.079096 478.441109,191.421846 479,193 L480,202 L501,203 L501,172 C497.923788,170.685499 490.062356,170 486,170 C475.193995,170 467.674365,176.683616 462,185 L461,185 L459,172 L429,172 L427,186 L436,189 C437.937644,189.365348 438.450346,190.564972 438,192 L438,243 C438.450346,245.233522 438.108545,245.747646 436,246 L428,247 L428,261 L484,261 Z M580,237 C568.367521,241.59116 561.188034,243.132597 555,243 C540.504274,243.132597 535.205128,235.082873 534,223 L587,223 C586.82906,219.497238 587,213.502762 587,211 C587,181.81768 571.957265,170 549,170 C525.974359,170 507,184.729282 507,216 C507,242.447514 518.282051,263 551,263 C564.094017,263 575.717949,259.403315 586,254 L580,237 Z M535,207 C536.018868,193.075472 541.962264,189 549,189 C556.226415,189 561.830189,192.735849 562,207 L535,207 Z M683,261 L683,247 L675,246 C672.192982,245.701657 672.021442,245.359116 672,243 L672,201 C672.021442,177.022099 661.557505,170 635,170 C619.701754,170 598.602339,173.254144 599,196 L623,198 C622.789474,188.154696 627.077973,186.955801 635,187 C645.947368,186.955801 646.805068,192.436464 647,200 L647,210 L627,211 C605.635478,212.646409 595,220.524862 595,238 C595,248.270718 598.430799,263 620,263 C633.768031,263 642.345029,257.861878 649,252 L650,252 L651,261 L683,261 Z M646,238 C642.114865,240.806723 636.371622,244 631,244 C625.054054,244 621,241.478992 621,235 C621,228.033613 624.547297,225.512605 635,225 L646,224 L646,238 Z M746,241 C742.311111,242.674453 737.37037,243.870073 733,244 C723.4,243.870073 721.014815,239.941606 721,230 L721,189 L746,189 L746,172 L722,172 C721.014815,171.962044 721.014815,171.449635 721,170 L721,146 L705,146 C702.955556,164.617518 696.992593,172.132847 682,174 L682,189 L694,189 C695.288889,189.042336 695.288889,189.725547 695,191 L695,236 C695.288889,254.80146 702.955556,263 723,263 C732.940741,263 743.674074,259.754745 751,256 L746,241 Z" id="great"></path>
            <path d="M252,250 C250.214815,250.881752 247.493827,251.535766 245,252 C239.8,251.535766 238.48642,249.386861 238,244 L238,222 L252,222 L252,212 L239,212 C238.48642,212.20146 238.48642,211.921168 238,211 L238,198 L230,198 C228.540741,208.183942 225.25679,212.294891 217,213 L217,222 L224,222 C224.318519,221.544526 224.318519,221.918248 224,222 L224,247 C224.318519,257.515328 228.540741,262 240,262 C245.054321,262 250.965432,260.224818 255,258 L252,250 Z M281,262 C298.840607,262 307,251.668508 307,236 C307,221.331492 300.16888,211 283,211 C265.254269,211 257,221.143646 257,237 C257,251.480663 264.020873,262 281,262 L281,262 Z M282,252 C275.696682,252 272,247.490909 272,236 C272,224.851515 276.170616,221 282,221 C288.587678,221 292,224.945455 292,236 C292,247.772727 288.208531,252 282,252 L282,252 Z" id="to"></path>
            <path d="M306,58 L306,44 L273,44 C268.710526,42.6860158 264.263158,42 257,42 C230.736842,42 217.736842,55.5488127 218,75 C217.736842,87.9630607 224.065789,96.8812665 232,101 C228.342105,104.770449 224.921053,108.029024 222,111 C218.763158,114.546174 216.881579,117.976253 217,122 C216.881579,126.379947 218.763158,130.667546 224,133 C218.421053,138.728232 215,142.844327 215,151 C215,164.110818 226.802632,172 258,172 C287.526316,172 304.802632,160.852243 305,141 C304.802632,118.319261 287.355263,117.461741 258,116 L241,115 L247,105 C249.723684,106.313984 254.684211,107 260,107 C281.710526,107 296.592105,95.8522427 297,77 C296.592105,68.9261214 293.342105,63.4379947 290,59 L306,58 Z M274,74 C274,83.3428571 267.497326,89 258,89 C246.620321,89 242,83.1714286 242,75 C242,63.6285714 249.016043,59 258,59 C268.181818,59 274,64.3142857 274,74 L274,74 Z M264,140 C272.51938,140.228571 279,140.571429 279,146 C279,155.314286 265.527132,156 256,156 C243.697674,156 235,153.942857 235,147 C235,143.657143 237.217054,140.742857 239,138 L264,140 Z M335,0 C325.651934,0 320,5.2247191 320,15 C320,24.4382022 325.651934,30 335,30 C345.348066,30 351,24.4382022 351,15 C351,5.2247191 345.348066,0 335,0 Z M362,133 L362,120 L353,118 C350.652632,117.96737 350.480702,117.62572 350,115 L350,44 L315,44 L313,58 L322,61 C324.003509,61.5950096 324.519298,62.7907869 325,65 L325,115 C324.519298,117.454894 324.175439,117.96737 322,118 L313,120 L313,133 L362,133 Z M425,113 C421.311111,114.674453 416.37037,115.870073 412,116 C402.4,115.870073 400.014815,111.941606 400,102 L400,61 L425,61 L425,44 L401,44 C400.014815,43.9620438 400.014815,43.449635 400,42 L400,18 L384,18 C381.955556,36.6175182 375.992593,44.1328467 361,46 L361,61 L373,61 C374.288889,61.0423358 374.288889,61.7255474 374,63 L374,108 C374.288889,126.80146 381.955556,135 402,135 C411.940741,135 422.674074,131.754745 430,128 L425,113 Z" id="git"></path>
            <path d="M4.49202239,82.2602863 C-0.197735735,86.9500444 -0.197992073,94.5543166 4.49202239,99.2443311 L82.2602863,177.012595 C86.9500444,181.702353 94.5543166,181.702609 99.244331,177.012595 L177.012595,99.2443311 C181.702353,94.5545729 181.702609,86.9503008 177.012595,82.2602863 L99.244331,4.49202239 C94.5545729,-0.197735735 86.9503008,-0.197992073 82.2602863,4.49202239 L66.5666092,20.1856994 L86.2651328,39.8209321 C87.7439983,39.2895427 89.338186,39 91,39 C98.7319865,39 105,45.2680135 105,53 C105,54.6459308 104.715966,56.2255218 104.194238,57.6924317 L123.353041,76.7896777 C124.807103,76.2781994 126.371063,76 128,76 C135.731986,76 142,82.2680135 142,90 C142,97.7319865 135.731986,104 128,104 C120.268014,104 114,97.7319865 114,90 C114,88.3292517 114.292664,86.7268588 114.829524,85.2412906 L96,66.4722656 L96,114.919258 C101.26274,116.932102 105,122.029609 105,128 C105,135.731986 98.7319865,142 91,142 C83.2680135,142 77,135.731986 77,128 C77,122.029609 80.7372596,116.932102 86,114.919258 L86,66.0807424 C80.7372596,64.0678978 77,58.9703908 77,53 C77,51.3620562 77.2812845,49.7898099 77.7981834,48.3289311 L58.0791021,28.6732066 L4.49202239,82.2602863 Z" id="emblem"></path>
        </g>
    </g>
</svg>

<svg width="751" height="300" viewBox="0 0 751 300" xmlns="http://www.w3.org/2000/svg"><title>git-to-great</title><g fill-rule="nonzero" fill="#FFF"><path d="M422 186v-14h-33c-4.29-1.314-8.737-2-16-2-26.263 0-39.263 13.55-39 33-.263 12.963 6.066 21.88 14 26-3.658 3.77-7.08 7.03-10 10-3.237 3.546-5.118 6.976-5 11-.118 4.38 1.763 8.668 7 11-5.58 5.728-9 9.844-9 18 0 13.11 11.803 21 43 21 29.526 0 46.803-11.148 47-31-.197-22.68-17.645-23.538-47-25l-17-1 6-10c2.724 1.314 7.684 2 13 2 21.71 0 36.592-11.148 37-30-.408-8.074-3.658-13.562-7-18l16-1zm-32 16c0 9.343-6.503 15-16 15-11.38 0-16-5.83-16-14 0-11.37 7.016-16 16-16 10.182 0 16 5.314 16 15zm-10 66c8.52.23 15 .57 15 6 0 9.314-13.473 10-23 10-12.302 0-21-2.057-21-9 0-3.343 2.217-6.257 4-9l25 2zm104-7v-14l-17-1c-2.573-.252-2.744-.766-3-4v-45c2.82-2.15 8.118-5.92 13-6 .928.08 1.44.422 2 2l1 9 21 1v-31c-3.076-1.315-10.938-2-15-2-10.806 0-18.326 6.684-24 15h-1l-2-13h-30l-2 14 9 3c1.938.365 2.45 1.565 2 3v51c.45 2.234.11 2.748-2 3l-8 1v14h56zm96-24c-11.632 4.59-18.812 6.133-25 6-14.496.133-19.795-7.917-21-20h53c-.17-3.503 0-9.497 0-12 0-29.182-15.043-41-38-41-23.026 0-42 14.73-42 46 0 26.448 11.282 47 44 47 13.094 0 24.718-3.597 35-9l-6-17zm-45-30c1.02-13.925 6.962-18 14-18 7.226 0 12.83 3.736 13 18h-27zm148 54v-14l-8-1c-2.807-.298-2.98-.64-3-3v-42c.02-23.978-10.442-31-37-31-15.298 0-36.398 3.254-36 26l24 2c-.21-9.845 4.078-11.044 12-11 10.947-.044 11.805 5.436 12 13v10l-20 1c-21.365 1.646-32 9.525-32 27 0 10.27 3.43 25 25 25 13.768 0 22.345-5.138 29-11h1l1 9h32zm-37-23c-3.885 2.807-9.628 6-15 6-5.946 0-10-2.52-10-9 0-6.966 3.547-9.487 14-10l11-1v14zm100 3c-3.69 1.674-8.63 2.87-13 3-9.6-.13-11.985-4.058-12-14v-41h25v-17h-24c-.985-.038-.985-.55-1-2v-24h-16c-2.044 18.618-8.007 26.133-23 28v15h12c1.29.042 1.29.726 1 2v45c.29 18.8 7.956 27 28 27 9.94 0 20.674-3.245 28-7l-5-15zM252 250c-1.785.882-4.506 1.536-7 2-5.2-.464-6.514-2.613-7-8v-22h14v-10h-13c-.514.2-.514-.08-1-1v-13h-8c-1.46 10.184-4.743 14.295-13 15v9h7c.32-.455.32-.082 0 0v25c.32 10.515 4.54 15 16 15 5.054 0 10.965-1.775 15-4l-3-8zm29 12c17.84 0 26-10.33 26-26 0-14.67-6.83-25-24-25-17.746 0-26 10.144-26 26 0 14.48 7.02 25 24 25zm1-10c-6.303 0-10-4.51-10-16 0-11.148 4.17-15 10-15 6.588 0 10 3.945 10 15 0 11.773-3.79 16-10 16zM306 58V44h-33c-4.29-1.314-8.737-2-16-2-26.263 0-39.263 13.55-39 33-.263 12.963 6.066 21.88 14 26-3.658 3.77-7.08 7.03-10 10-3.237 3.546-5.118 6.976-5 11-.118 4.38 1.763 8.668 7 11-5.58 5.728-9 9.844-9 18 0 13.11 11.803 21 43 21 29.526 0 46.803-11.148 47-31-.197-22.68-17.645-23.538-47-25l-17-1 6-10c2.724 1.314 7.684 2 13 2 21.71 0 36.592-11.148 37-30-.408-8.074-3.658-13.562-7-18l16-1zm-32 16c0 9.343-6.503 15-16 15-11.38 0-16-5.83-16-14 0-11.37 7.016-16 16-16 10.182 0 16 5.314 16 15zm-10 66c8.52.23 15 .57 15 6 0 9.314-13.473 10-23 10-12.302 0-21-2.057-21-9 0-3.343 2.217-6.257 4-9l25 2zM335 0c-9.348 0-15 5.225-15 15 0 9.438 5.652 15 15 15 10.348 0 16-5.562 16-15 0-9.775-5.652-15-16-15zm27 133v-13l-9-2c-2.347-.033-2.52-.374-3-3V44h-35l-2 14 9 3c2.004.595 2.52 1.79 3 4v50c-.48 2.455-.825 2.967-3 3l-9 2v13h49zm63-20c-3.69 1.674-8.63 2.87-13 3-9.6-.13-11.985-4.058-12-14V61h25V44h-24c-.985-.038-.985-.55-1-2V18h-16c-2.044 18.618-8.007 26.133-23 28v15h12c1.29.042 1.29.726 1 2v45c.29 18.8 7.956 27 28 27 9.94 0 20.674-3.245 28-7l-5-15zM4.492 82.26c-4.69 4.69-4.69 12.294 0 16.984l77.768 77.77c4.69 4.688 12.294 4.69 16.984 0l77.77-77.77c4.688-4.69 4.69-12.294 0-16.984L99.243 4.492c-4.69-4.69-12.294-4.69-16.984 0L66.567 20.186 86.265 39.82c1.48-.53 3.073-.82 4.735-.82 7.732 0 14 6.268 14 14 0 1.646-.284 3.226-.806 4.692l19.16 19.098c1.453-.512 3.017-.79 4.646-.79 7.732 0 14 6.268 14 14s-6.268 14-14 14-14-6.268-14-14c0-1.67.293-3.273.83-4.76L96 66.473v48.447c5.263 2.012 9 7.11 9 13.08 0 7.732-6.268 14-14 14s-14-6.268-14-14c0-5.97 3.737-11.068 9-13.08V66.08c-5.263-2.012-9-7.11-9-13.08 0-1.638.28-3.21.798-4.67l-19.72-19.657L4.493 82.26z"/></g></svg>
